X: 40777
T: Tournmore, The
R: polka
M: 2/4
K: Dmajor
|:ef/e/ dB|BA B/c/d|ef/e/ dB|BA A2|
ef/e/ dB|BA B/c/d|ab/a/ gc|1 ed d2:|2 ed de||
|:f>^e fA|B/c/d ef|g>f ga|ba f/g/a/g/|
f>^e fA|B/c/d ef|ab/a/ gc|1 ed de:|2 ed d2||

